X:12226
T:Obfelder Dreier - Walzer/Waltz/Valse
C:Volkstanz
S:E. u. Ch. Huspeka
Z:abc transcription Simon Wascher
N:please mail errors to simon.wascher@chello.at
M:3/4
L:1/4
K:G
D|BdB|G2A|BdB|G2A|
B2B|d2d|ABA|D2D|
BdB|G2A|BdB|G2A|
B2B|dcA|G>GG|G2:|
|:d|czc|cBA|BzB|G3|
DFA|DFA|G2B|d2d|
czc|cBA|BzB|G3|
DFA|cBA|G>GG|G2:|
